icons/lines/dash--dash-.svg

<svg xmlns="http://www.w3.org/2000/svg" width="24" height="24" viewBox="0 0 24 24" fill="none" stroke="currentColor" stroke-width="2" stroke-linecap="round" stroke-linejoin="round" >
  <path d="M7.10039 3.5H16.0004C20.0004 3.5 22.0004 6 22.0004 9.5V12C22.0004 17 19.0004 20.5 13.5004 20.5H3.90039L5.00039 16.2H12.4004C16.0004 16.2 17.7004 14 17.7004 10.9V10.7C17.7004 8.9 16.9004 7.7 14.7004 7.7H6.10039L7.10039 3.5Z" stroke-miterlimit="10"/>
  <path d="M11.5 10.5H4.3C3.4 10.5 2.6 11.1 2.4 12L2 13.5H9.2C10.1 13.5 10.9 12.9 11.1 12L11.5 10.5Z" stroke-miterlimit="10"/>
  </svg>

<svg xmlns="http://www.w3.org/2000/svg" width="24" height="24" viewBox="0 0 24 24" fill="none" stroke="currentColor" stroke-width="2" stroke-linecap="round" stroke-linejoin="round">
  <path d="M11.5 10.5H4.3A2 2 0 0 0 2.4 12L2 13.5h7.2a2 2 0 0 0 1.9-1.5z" />
  <path d="M7.1 3.5H16c4 0 6 2.5 6 6V12c0 5-3 8.5-8.5 8.5H3.9L5 16.2h7.4c3.6 0 5.3-2.2 5.3-5.3v-.2c0-1.8-.8-3-3-3H6.1z" />
</svg>
